X: 40741
T: Toss The Fiddles
R: reel
M: 4/4
K: Gmajor
(3DEF|"G"G2BG DGBG|DGBG "Am"AGEG|"G"DGBG dGBG|
"C"cBAG "D7"FGAF|"G"G2BG DGBG|DGBG "Am"AGEG|
"G"DGBG dGBG|1 "D7"cAFA "G"G2 "D7"(3DEF:|2 "D7"cAFA "G"G2 "D7"(3def||
|:"G"g2dg Bgdg|"C"egcg egcg|"D(sus4)"fgdg fg"(B7)"df|
"Em"gabg "D7"agdf|"G"g2dg Bgdg|"C"egcg egcg|
"D(sus4)"fgdg fg "D7"(3def|1 "G"g2"D"f2 "G"g2 "D7"(3def:|2 "G"g4 "G"g2 "D7"(3B_BA||

